packages/icons/svg/Outline/clipboard.svg

<svg fill="none" height="24" viewBox="0 0 24 24" width="24" xmlns="http://www.w3.org/2000/svg"><path clip-rule="evenodd" d="m19 19.0001c0 .552-.449 1-1 1h-11.99998c-.551 0-1-.448-1-1v-11.00004c0-.552.449-1 1-1v1c0 1.10301.897 2.00004 2 2.00004h7.99998c1.103 0 2-.89703 2-2.00004v-1c.551 0 1 .448 1 1zm-10.99998-15.00003 7.99998.003v.99699 3h-7.99998v-3zm9.99998.99993v-1c0-1.103-.897-2-2-2h-8c-1.103 0-2 .897-2 2v1c-1.654 0-3 1.346-3 3v11c0 1.654 1.346 3 3 3h12c1.654 0 3-1.346 3-3v-11c0-1.654-1.346-3-3-3z" fill="#6b7280" fill-rule="evenodd"/></svg>

<svg width="24" height="24" viewBox="0 0 24 24" fill="none" xmlns="http://www.w3.org/2000/svg">
<g id="Icon/Outline/clipboard">
<path id="Mask" fill-rule="evenodd" clip-rule="evenodd" d="M19 19C19 19.552 18.551 20 18 20H6C5.449 20 5 19.552 5 19V8C5 7.448 5.449 7 6 7V8C6 9.103 6.897 10 8 10H16C17.103 10 18 9.103 18 8V7C18.551 7 19 7.448 19 8V19ZM8 4L16 4.003V5V8H8V5V4ZM18 5V4C18 2.897 17.103 2 16 2H8C6.897 2 6 2.897 6 4V5C4.346 5 3 6.346 3 8V19C3 20.654 4.346 22 6 22H18C19.654 22 21 20.654 21 19V8C21 6.346 19.654 5 18 5Z" fill="#000000"/>
</g>
</svg>
